svgs/sharp-regular/file-spreadsheet.svg

<svg xmlns="http://www.w3.org/2000/svg" viewBox="0 0 384 512"><!--! Font Awesome Pro 6.6.0 by @fontawesome - https://fontawesome.com License - https://fontawesome.com/license (Commercial License) Copyright 2024 Fonticons, Inc. --><path d="M48 48l176 0 0 112 112 0 0 304L48 464 48 48zM256 0L48 0 0 0 0 48 0 464l0 48 48 0 288 0 48 0 0-48 0-336L256 0zM176 256l0 48-64 0 0-48 64 0zm-64 80l64 0 0 48-64 0 0-48zm96 0l64 0 0 48-64 0 0-48zm-16 80l16 0 64 0 32 0 0-32 0-48 0-16 0-16 0-48 0-32-32 0-64 0-16 0-16 0-64 0-32 0 0 32 0 48 0 16 0 16 0 48 0 32 32 0 64 0 16 0zm16-112l0-48 64 0 0 48-64 0z"/></svg>

<svg xmlns="http://www.w3.org/2000/svg" viewBox="0 0 384 512"><!--! Font Awesome Pro 6.4.0 by @fontawesome - https://fontawesome.com License - https://fontawesome.com/license (Commercial License) Copyright 2023 Fonticons, Inc. --><path d="M48 48H224V160H336V464H48V48zM256 0H48 0V48 464v48H48 336h48V464 128L256 0zM176 256v48H112V256h64zm-64 80h64v48H112V336zm96 0h64v48H208V336zm-16 80h16 64 32V384 336 320 304 256 224H272 208 192 176 112 80v32 48 16 16 48 32h32 64 16zm16-112V256h64v48H208z"/></svg>
